X: 3995
T: Blackthorn Stick, The
R: jig
M: 6/8
K: Amajor
e|:aga faf|ecA BAF|EAA FBB|cAc A2 e|
aga baf|ecA BAF|EAA FBB|cAA A2 e:|
|:fee aee|fee aee|fee agf|edc B2 e|
aga baf|ecA BAF|EAA FBB|cAA A2 e:|

